src/icons/solid/symbols/hourglass.svg

<svg width="24" height="24" viewBox="0 0 24 24" fill="none" xmlns="http://www.w3.org/2000/svg">
<g clip-path="url(#clip0_402_507)">
<path d="M19 5.09119V3.03576C19 1.91462 18.1167 1 17.0339 1H6.96608C5.88331 1 5 1.91462 5 3.03576V5.09119C5 8.32678 7.05156 11.0608 9.87246 11.9951C7.05156 12.9294 5 15.6634 5 18.899V20.9544C5 22.0755 5.88331 23 6.96608 23H17.0339C18.1167 23 19 22.0755 19 20.9544V18.899C19 15.6634 16.9579 12.9294 14.1275 11.9951C16.9579 11.0608 19 8.32678 19 5.09119ZM8.55224 18.4269L11.3826 15.1225C11.3826 15.1225 11.4301 15.0733 11.4491 15.0438C11.8005 14.7291 12.3419 14.7586 12.6554 15.1225L15.4858 18.4269C15.6187 18.5843 15.6947 18.7908 15.6947 19.0072C15.6947 19.489 15.3148 19.8824 14.8494 19.8824H9.1886C8.97965 19.8824 8.78019 19.8038 8.62822 19.6661C8.2768 19.3415 8.23881 18.7908 8.55224 18.4269ZM14.9349 8.00223C14.365 9.14305 13.2537 9.87081 12.019 9.91015C10.7843 9.88064 9.673 9.16272 9.10312 8.03174C9.02714 7.90389 9.02714 7.7367 9.10312 7.59902C9.16961 7.4515 9.31208 7.35315 9.46404 7.34332H14.5644C14.7164 7.34332 14.8589 7.42199 14.9349 7.55968C15.0014 7.69736 15.0014 7.86455 14.9349 8.00223Z" fill="#212121"/>
</g>
<defs>
<clipPath id="clip0_402_507">
<rect width="24" height="24" fill="white"/>
</clipPath>
</defs>
</svg>

<svg xmlns="http://www.w3.org/2000/svg" width="24" height="24" fill="none" viewBox="0 0 24 24"><g clip-path="url(#a)"><path fill="currentColor" d="M19 5.091V3.036C19 1.915 18.117 1 17.034 1H6.966C5.883 1 5 1.915 5 3.036V5.09c0 3.236 2.052 5.97 4.872 6.904C7.052 12.93 5 15.663 5 18.9v2.055C5 22.076 5.883 23 6.966 23h10.068C18.117 23 19 22.076 19 20.954V18.9c0-3.236-2.042-5.97-4.873-6.904C16.958 11.061 19 8.327 19 5.091M8.552 18.427l2.83-3.304s.048-.05.067-.08a.844.844 0 0 1 1.206.08l2.83 3.304a.9.9 0 0 1 .21.58c0 .482-.38.875-.846.875H9.19a.84.84 0 0 1-.56-.216.896.896 0 0 1-.077-1.24m6.383-10.425c-.57 1.141-1.681 1.869-2.916 1.908-1.235-.03-2.346-.747-2.916-1.878a.44.44 0 0 1 0-.433.43.43 0 0 1 .361-.256h5.1a.42.42 0 0 1 .37.217.52.52 0 0 1 0 .442"/></g><defs><clipPath id="a"><path fill="currentColor" d="M0 0h24v24H0z"/></clipPath></defs></svg>
